X:1312
T:Beggar Girl,The. BF13.097
M:6/8
L:1/8
Q:60
S:J.Lishman(?)MS,c1825,Lakes,Browne Coll.
R:Air
O:England
A:Lakes
N:The grace notes are shown as semi-quavers, but as yet I can't persuade
N:the program to do that.  The pause is shown as the conventional sign
Z:vmp.Cherri Graebe.
K:D major
a>gf a>gf|e>de f/2c/2d/2e/2f/2g/2|a>gf a>gf|{f/2} e>ded2a|!
a>gf a>gf|e>de f>ga|a>gf a>gf|e>de d2z|!
Adf Aef|Agf{f/2} ede|AdcB2g/2g/2|{g}fed "pause"a2z|!
a>gf {g}a>gf|{f/2}e>de f>ga|a>gf bc'"pause"d'|f>ged2z|]


